icons/file-text-line.svg

<svg xmlns="http://www.w3.org/2000/svg" width="24" height="24" fill="none"><g clip-path="url(#a)"><g><path fill="#121212" d="M21 8V20.993C21.0009 21.1243 20.976 21.2545 20.9266 21.3762C20.8772 21.4979 20.8043 21.6087 20.7121 21.7022C20.6199 21.7957 20.5101 21.8701 20.3892 21.9212C20.2682 21.9723 20.1383 21.9991 20.007 22H3.993C3.72981 22 3.47739 21.8955 3.2912 21.7095C3.105 21.5235 3.00027 21.2712 3 21.008V2.992C3 2.455 3.449 2 4.002 2H14.997L21 8ZM19 9H14V4H5V20H19V9ZM8 7H11V9H8V7ZM8 11H16V13H8V11ZM8 15H16V17H8V15Z"/></g></g><defs><clipPath id="a"><rect width="24" height="24" fill="white"/></clipPath></defs></svg>

<svg width="24" height="24" fill="none" xmlns="http://www.w3.org/2000/svg"><g clip-path="url(#a)"><path d="M21 8v12.993A1 1 0 0 1 20.007 22H3.993A.993.993 0 0 1 3 21.008V2.992C3 2.455 3.449 2 4.002 2h10.995L21 8Zm-2 1h-5V4H5v16h14V9ZM8 7h3v2H8V7Zm0 4h8v2H8v-2Zm0 4h8v2H8v-2Z" /></g><defs><clipPath id="a"><path fill="#fff" d="M0 0h24v24H0z"/></clipPath></defs></svg>
